X:1165
T:Haren uti gresset
C:anon.
O:Denmark (or Norway)
R:Nursery song
Z:Transcribed by Frank Nordberg - http://www.musicaviva.com
F:http://abc.musicaviva.com/tunes/denmark/haren-uti-gresset/haren-uti-gresset-1.abc
M:2/4
L:1/8
K:C
"C"CDEF|"C"G2c2|"F"A2c2|"C"G3 z|"G7"FFFF|"C"EEE2|
"G7"DDDD|"C"CEG2|"C"CEG2|"C"CEG2|"G7"G2G2|"C"C2 z2|]
W:
W:
W:  From Musica Viva - http://www.musicaviva.com
W:  the Internet center for free sheet music downloads.
